svgs/simple_clipboard_editor.svg

<svg width="192" height="192" viewBox="0 0 192 192" fill="none" xmlns="http://www.w3.org/2000/svg">
<path d="M61.5178 38.6247H44C40.6863 38.6247 38 41.311 38 44.6247V164C38 167.314 40.6863 170 44 170H147.156C150.47 170 153.156 167.314 153.156 164V44.6247C153.156 41.311 150.47 38.6247 147.156 38.6247H129.638M61.5178 38.6247V67.6301C61.5178 68.1824 61.9655 68.6301 62.5178 68.6301H128.638C129.191 68.6301 129.638 68.1824 129.638 67.6301V38.6247M61.5178 38.6247H77.737M129.638 38.6247H113.419" stroke="black" stroke-width="12" stroke-linecap="round" stroke-linejoin="round"/>
<ellipse cx="95.7808" cy="37.2055" rx="15.2055" ry="15.2055" stroke="black" stroke-width="12"/>
</svg>

<svg width="192" height="192" viewBox="0 0 192 192" fill="none" xmlns="http://www.w3.org/2000/svg"><path d="M61.518 38.625H44a6 6 0 0 0-6 6V164a6 6 0 0 0 6 6h103.156a6 6 0 0 0 6-6V44.625a6 6 0 0 0-6-6h-17.518m-68.12 0V67.63a1 1 0 0 0 1 1h66.12a1 1 0 0 0 1-1V38.625m-68.12 0h16.219m51.901 0h-16.219" stroke="#000" stroke-width="12" stroke-linecap="round" stroke-linejoin="round"/><circle cx="95.781" cy="37.206" stroke="#000" stroke-width="12" r="15.206"/></svg>
